X:0447
T:Port Rorie Dall
C:Irish
M:C
L:1/8
Q:1/4=90 "Slow"
I: :: ::
Z:Jack Campin * www.campin.me.uk * 2009
K:E Minor
   E2e2     e3   d | e2g2  dBAG          | E2     A2 TA3     B| d{c}B``B{A}G TE4       |
{c}B2AG ({B}A2)(GE)| GABd  B2AG          | AGAB (d/B/A)  B/A/G| G/A/B TA>G    E4      ::
   E2E2     GABG   | A2[A4A,4]     D/E/G | A2    [A4A,4] D/E/G|TA2     GA     B2(A/B/d)|
   e2E4       ef   | g2fg  f/g/a   ga    |(g/a/b) e4     ab   | a2     ga    Tg2 ed    |
   d2d2    Td4     | e2e2 Tg3           a| g2     G4     e2   | g2     G4        e2    |
  Tg3 a     baba   |Tg3 a  baba          | g2     d4     gf   | e2     eg     d2 dg    |
   c2cg    TB2AG   | AGAB (d/B/)A (B/A/)G| G/A/B TA>G    E4  :|
<end>
<start>
